Hatter-kde/actions/24/stroke-join-bevel.svg

<?xml version="1.0" encoding="UTF-8"?>
<svg viewBox="0 0 24 24" xmlns="http://www.w3.org/2000/svg">
 <defs id="defs3051">
  <style id="current-color-scheme" type="text/css">.ColorScheme-Text {
        color:#363636;
      }</style>
 </defs>
 <path class="ColorScheme-Text" d="m10.242 4-4.2422 4.2422 0.0078125 0.0078125h-0.0078125v2.75 9h1 3v-1-8.3438l2.6562-2.6562h4.3438 1v-1-2-1h-1-5.0098-1.7461-0.001953zm0.41406 1h1.334 5.0098v2h-4-0.75391-0.003906l-3.2422 3.2422v0.001953 8.7559h-2v-10.344l3.6562-3.6562zm1.3438 5v1 9h1 3v-1-5h1 1v-1-2-1h-1-1-3-1zm1 1h3 1v2h-1-1v1 5h-2v-8z" fill="currentColor"/>
</svg>

<svg xmlns="http://www.w3.org/2000/svg" viewBox="0 0 24 24">
  <defs id="defs3051">
    <style type="text/css" id="current-color-scheme">
      .ColorScheme-Text {
        color:#363636;
      }
      </style>
  </defs>
 <path style="fill:currentColor;fill-opacity:1;stroke:none" 
     d="M 10.242188 4 L 6 8.2421875 L 6.0078125 8.25 L 6 8.25 L 6 11 L 6 20 L 7 20 L 10 20 L 10 19 L 10 10.65625 L 12.65625 8 L 17 8 L 18 8 L 18 7 L 18 5 L 18 4 L 17 4 L 11.990234 4 L 10.244141 4 L 10.242188 4 z M 10.65625 5 L 11.990234 5 L 17 5 L 17 7 L 13 7 L 12.246094 7 L 12.242188 7 L 9 10.242188 L 9 10.244141 L 9 19 L 7 19 L 7 8.65625 L 10.65625 5 z M 12 10 L 12 11 L 12 20 L 13 20 L 16 20 L 16 19 L 16 14 L 17 14 L 18 14 L 18 13 L 18 11 L 18 10 L 17 10 L 16 10 L 13 10 L 12 10 z M 13 11 L 16 11 L 17 11 L 17 13 L 16 13 L 15 13 L 15 14 L 15 19 L 13 19 L 13 11 z "
     class="ColorScheme-Text"
     />
</svg>
